mi/picnic-site.svg

<svg version="1.1" xmlns="http://www.w3.org/2000/svg" viewBox="0 0 15 15" height="1em" width="1em">
  <path d="M4,3C3.446,3,3,3.446,3,4s0.446,1,1,1h1.2969	L4.6523,7H2.5c-0.554,0-1,0.446-1,1s0.446,1,1,1h1.5098L3.041,12.0098c-0.1284,0.3939,0.0868,0.8173,0.4807,0.9457	s0.8173-0.0868,0.9457-0.4807c0.0005-0.0013,0.0009-0.0027,0.0013-0.004L5.5859,9h3.8281l1.1172,3.4707	c0.1273,0.3943,0.5501,0.6107,0.9443,0.4834s0.6107-0.5501,0.4834-0.9443l0,0L10.9902,9H12.5c0.554,0,1-0.446,1-1s-0.446-1-1-1	h-2.1523L9.7031,5H11c0.554,0,1-0.446,1-1s-0.446-1-1-1H4z M6.873,5H8.127l0.6445,2h-2.543L6.873,5z"/>
</svg>

<svg xmlns="http://www.w3.org/2000/svg" viewBox="0 0 15 15" height="1em" width="1em">
  <path d="M4 3c-.554 0-1 .446-1 1s.446 1 1 1h1.297l-.645 2H2.5c-.554 0-1 .446-1 1s.446 1 1 1h1.51l-.969 3.01a.75.75 0 1 0 1.426.465l.002-.004L5.586 9h3.828l1.117 3.47a.75.75 0 1 0 1.428-.46L10.99 9h1.51c.554 0 1-.446 1-1s-.446-1-1-1h-2.152l-.645-2H11c.554 0 1-.446 1-1s-.446-1-1-1H4zm2.873 2h1.254l.644 2H6.23l.644-2z"/>
</svg>
